img/image/design/logo-mini.svg

<svg xmlns="http://www.w3.org/2000/svg" fill="none" viewBox="0.84 -0.06 130.53 132.6">
<path d="M78.729 128.661C90.563 123.997 99.1695 112.948 100.389 99.7452H119.538C119.61 99.8887 119.682 100.032 119.825 100.176C110.717 114.598 96.0138 125.145 78.729 128.661ZM12.1716 100.104C12.2433 100.032 12.2433 99.8887 12.315 99.7452H31.608C32.8273 112.876 41.4339 123.926 53.2679 128.661C35.983 125.145 21.2085 114.598 12.0998 100.104H12.1716ZM5.71665 46.3619C5.42976 48.0839 5.28632 49.8777 5.28632 51.6715C5.28632 63.6541 11.3826 74.2016 20.7064 80.444L11.024 97.3774C10.8806 97.3057 10.6654 97.3057 10.522 97.3057C5.42976 88.1215 2.48919 77.6457 2.48919 66.4524C2.48919 59.4925 3.63673 52.7478 5.71665 46.5054V46.3619ZM64.313 2.80855C64.4564 3.0238 64.5998 3.23906 64.7433 3.38256L54.9175 20.603C50.3273 18.3787 45.2351 17.1589 39.856 17.1589C31.3929 17.1589 23.647 20.2442 17.6224 25.3386C28.9544 11.9928 45.6654 3.38256 64.3847 2.8803L64.313 2.80855ZM113.872 24.5493C107.92 19.742 100.389 16.8002 92.1408 16.8002C86.69 16.8002 81.5978 18.0917 77.0076 20.316L67.3253 3.38256C67.4687 3.23906 67.6839 3.0238 67.7556 2.80855C86.1162 3.31081 102.54 11.634 113.872 24.5493ZM98.6675 85.2514C102.684 84.4621 106.413 83.0271 109.784 81.018L119.538 98.095H100.532C100.532 97.5927 100.604 97.0904 100.604 96.5882C100.604 92.6418 99.9585 88.839 98.6675 85.2514ZM85.0404 98.095L91.9974 85.8971H92.0691C94.0773 85.8971 96.0855 85.6819 98.022 85.3949C99.2412 88.9107 99.9585 92.6418 99.9585 96.5882C99.9585 97.0904 99.9585 97.5927 99.8867 98.095H85.0404ZM67.7556 129.881C67.6121 129.666 67.4687 129.451 67.2535 129.235L84.108 99.7452H99.815C98.4523 114.024 88.1962 125.791 74.6408 129.379C72.4175 129.666 70.1224 129.881 67.8273 129.953L67.7556 129.881ZM48.0322 99.7452L64.8867 129.235C64.6716 129.379 64.5281 129.594 64.3847 129.881C62.0896 129.809 59.7945 129.666 57.5712 129.307C44.0158 125.791 33.688 114.024 32.397 99.6735H48.1039L48.0322 99.7452ZM32.1818 96.5164C32.1818 92.7136 32.8273 89.0542 33.9748 85.6819C35.9113 86.0406 37.8478 86.1842 39.856 86.1842C39.9994 86.1842 40.1429 86.1842 40.2863 86.1842L47.0998 98.095H32.2535C32.2535 97.5927 32.1818 97.0904 32.1818 96.5882V96.5164ZM33.3294 85.5384C32.1818 88.9825 31.5363 92.6418 31.5363 96.5164C31.5363 97.0187 31.5363 97.5209 31.608 98.0232H12.6019L22.2126 81.2333C25.5835 83.2423 29.3847 84.7491 33.4011 85.5384H33.3294ZM29.815 67.8157L36.2699 79.0807C35.1941 80.9463 34.2617 82.8836 33.5445 84.8926C29.5998 84.1751 25.8703 82.6683 22.4994 80.6593L29.8867 67.7439L29.815 67.8157ZM65.3888 29.4285C64.3847 30.6483 63.4523 32.0115 62.5917 33.3748H49.5384L56.1367 21.8945C59.6511 23.8318 62.8068 26.4149 65.4605 29.4285H65.3888ZM82.5302 33.3748H69.1183C68.2576 32.0115 67.2535 30.6483 66.2494 29.4285C68.9031 26.2714 72.1306 23.6166 75.7884 21.6075L82.5302 33.4466V33.3748ZM95.7986 79.0807L102.254 67.8157L109.426 80.3723C106.055 82.3813 102.397 83.8163 98.4523 84.5339C97.7351 82.5966 96.8744 80.8028 95.8703 79.009L95.7986 79.0807ZM95.44 79.7265C96.3724 81.305 97.1613 82.9553 97.7351 84.6774C95.9421 84.9644 94.149 85.1796 92.2843 85.1796L95.3683 79.7265H95.44ZM76.5056 81.3768L84.2515 67.9592C88.3396 70.5423 91.7822 74.0581 94.4359 78.0762L90.4195 85.1079C85.399 84.8926 80.7371 83.5293 76.5056 81.3768ZM66.8949 98.0232L76.2187 81.9508C80.4503 84.1033 85.1121 85.4666 90.0609 85.7536L83.0322 98.0232H66.8949ZM66.3212 99.6735H82.0999L66.3212 127.37V99.6735ZM65.6757 99.6735V127.37L49.897 99.6735H65.6757ZM55.9216 82.0943L65.1019 98.0232H48.9646L42.1511 86.0406C47.0998 85.6819 51.7617 84.3186 55.9216 82.0943ZM38.6367 52.2455H38.7085L47.4585 67.3134C43.3703 69.8965 39.9277 73.3406 37.274 77.3587L30.8191 66.0219L38.7085 52.1738L38.6367 52.2455ZM37.274 51.3128L29.815 64.3716L13.3191 35.4556L37.274 51.3128ZM37.5609 50.7388L13.6777 34.9534H46.5261L37.4892 50.7388H37.5609ZM57.4994 51.241V51.3128H39.1388L48.4626 34.9534H61.5158C58.9339 39.8325 57.4277 45.3574 57.4277 51.1693L57.4994 51.241ZM92.7863 51.3128H74.2822C74.2105 45.4291 72.7044 39.8325 70.0507 34.9534H83.4626L92.7863 51.3128ZM94.3642 50.667L85.399 35.0251H118.534L94.3642 50.667ZM94.6511 51.241L118.534 35.7426L102.182 64.4434L94.6511 51.241ZM93.2884 52.2455L101.249 66.0936L94.7945 77.4304C92.1408 73.4123 88.6265 69.9682 84.6101 67.3852L93.3601 52.2455H93.2884ZM73.9236 62.8648C73.9236 62.7931 73.9236 62.7931 73.9236 62.7213C73.9236 62.0038 73.4933 61.358 72.9195 61.071C73.6367 58.488 74.0671 55.8331 74.2105 53.0348H90.9216L83.104 66.5242C80.2351 64.8739 77.2228 63.6541 73.9236 62.8648ZM67.3253 74.4169C67.6839 74.0581 67.8273 73.6276 67.8273 73.1253C67.8273 72.6948 67.6839 72.3361 67.4687 72.049C69.19 69.753 70.5527 67.2417 71.6285 64.5869C71.7003 64.5869 71.8437 64.5869 71.9154 64.5869C72.7044 64.5869 73.3498 64.0846 73.6367 63.4388C76.8642 64.2281 79.8765 65.4479 82.6736 67.0264L74.9277 80.5158C72.0589 78.8655 69.4769 76.7847 67.2535 74.4169H67.3253ZM58.0015 63.5106C58.2884 64.1563 58.9339 64.5869 59.7228 64.5869C59.8662 64.5869 60.0097 64.5869 60.1531 64.5151C61.3007 67.1699 62.7351 69.6812 64.3847 71.9055C64.1695 72.1926 64.0261 72.6231 64.0261 73.0536C64.0261 73.6276 64.2412 74.1299 64.6716 74.4886C62.4482 76.9282 59.8662 79.009 56.9974 80.731L49.108 67.0264C51.8335 65.4479 54.8457 64.2281 58.0015 63.5106ZM58.9339 60.9993C58.2884 61.2863 57.858 61.932 57.858 62.7213C57.858 62.7931 57.858 62.8648 57.858 62.9366C54.6306 63.7258 51.6183 64.9456 48.8212 66.5242L41.0035 53.0348H57.5712C57.7146 55.7614 58.2167 58.488 58.9339 60.9993ZM72.0589 60.784C71.1982 60.784 70.4093 61.358 70.1941 62.219C68.8314 62.0755 67.397 61.932 65.9626 61.932C64.4564 61.932 63.022 62.0038 61.5876 62.219C61.3724 61.4298 60.6552 60.784 59.7228 60.784C59.6511 60.784 59.5794 60.784 59.5076 60.784C58.7904 58.2727 58.2884 55.6896 58.1449 52.9631H73.565C73.4216 55.6896 72.9912 58.2727 72.3457 60.784C72.274 60.784 72.1306 60.784 72.0589 60.784ZM67.1101 71.5468C66.8232 71.3315 66.3929 71.188 65.9626 71.188C65.5322 71.188 65.1736 71.3315 64.8867 71.5468C63.2371 69.3225 61.8744 66.8829 60.7269 64.2999C61.2289 64.0128 61.5876 63.4388 61.5876 62.8648C63.022 62.6496 64.4564 62.5778 65.8908 62.5778C67.3253 62.5778 68.688 62.6496 70.0507 62.8648C70.1224 63.5106 70.481 64.0846 71.0548 64.4434C69.979 67.0264 68.6162 69.3942 67.0384 71.6185L67.1101 71.5468ZM65.9626 96.2294L57.356 81.305C60.2966 79.583 62.9503 77.4304 65.2453 74.9191C65.4605 74.9909 65.7474 75.0626 66.0343 75.0626C66.3212 75.0626 66.608 74.9909 66.8949 74.8474C69.19 77.2869 71.8437 79.4395 74.7843 81.0898L66.0343 96.2294H65.9626ZM63.2371 33.3031C64.0261 32.0833 64.815 30.9353 65.7474 29.859C66.6798 30.9353 67.5404 32.0833 68.2576 33.3031H63.2371ZM69.2617 34.9534C71.9871 39.7607 73.565 45.3574 73.565 51.3128H58.0732V51.241C58.0732 45.3574 59.5794 39.8325 62.233 35.0251H69.2617V34.9534ZM39.7843 85.4666H39.7126C37.7761 85.4666 35.9113 85.3231 34.0466 84.9644C34.6921 83.0988 35.5527 81.3768 36.4851 79.6547L39.7843 85.4666ZM37.4892 78.0762C40.1429 73.9863 43.5855 70.5423 47.6736 67.9592L55.563 81.592C51.4031 83.8163 46.6695 85.1796 41.7207 85.4666L37.5609 78.1479L37.4892 78.0762ZM125.85 51.241C125.85 63.0083 119.825 73.3406 110.717 79.4395L103.114 66.0936L120.686 35.3121C120.901 35.4556 121.188 35.5274 121.475 35.5274C121.475 35.5274 121.475 35.5274 121.547 35.5274C122.622 37.4647 123.555 39.402 124.415 41.411C125.348 44.4963 125.85 47.7969 125.85 51.241ZM116.67 28.0652C117.745 29.5002 118.821 31.007 119.754 32.5856C119.61 32.8008 119.538 33.0161 119.538 33.3031H84.3232L77.1511 20.7465C81.5978 18.5939 86.6183 17.3024 91.9257 17.3024C101.68 17.3024 110.43 21.464 116.67 28.0652ZM75.358 20.9618C71.7003 22.9708 68.4011 25.6974 65.6757 28.8545C63.022 25.8409 59.8662 23.2578 56.2802 21.2488L65.8908 4.38709L75.358 20.89V20.9618ZM39.7126 17.6612C45.0199 17.6612 50.0404 18.881 54.4871 21.0335L47.4585 33.3031H12.1716C12.1716 33.0878 12.0998 32.8726 11.9564 32.6573C12.7453 31.3658 13.606 30.146 14.4667 28.9262C20.7064 22.038 29.6716 17.7329 39.6408 17.7329L39.7126 17.6612ZM7.29452 41.8415C8.2269 39.6172 9.23099 37.5364 10.3785 35.4556C10.6654 35.4556 10.9523 35.3839 11.1675 35.2404L28.7392 66.0936L20.9216 79.7982C11.813 73.6993 5.86009 63.3671 5.86009 51.5998C5.86009 48.2274 6.36214 44.9269 7.29452 41.8415ZM121.618 96.9469C121.475 96.9469 121.331 96.8752 121.188 96.8752C121.045 96.8752 120.901 96.8752 120.758 96.9469L111.075 80.0135C120.399 73.8428 126.495 63.2236 126.495 51.241C126.495 49.3755 126.352 47.5099 126.065 45.7161C128.288 52.1738 129.508 59.062 129.508 66.3089C129.508 77.4304 126.639 87.9062 121.618 97.0187V96.9469ZM131.229 66.2372C131.229 54.9721 128.432 44.2093 123.124 34.6664C123.34 34.3793 123.483 33.9488 123.483 33.5901C123.483 32.5138 122.622 31.6528 121.547 31.6528C121.475 31.6528 121.403 31.6528 121.331 31.6528C118.749 27.4912 115.665 23.6166 112.151 20.1007C100.245 8.18993 84.5384 1.44526 67.7556 1.01475C67.4687 0.368987 66.8232 -0.0615234 66.0343 -0.0615234C65.2453 -0.0615234 64.5998 0.368987 64.313 1.01475C47.5302 1.44526 31.8232 8.18993 19.9175 20.1007C16.4031 23.6166 13.3191 27.4912 10.7371 31.581C10.6654 31.581 10.522 31.581 10.4503 31.581C9.37444 31.581 8.51378 32.442 8.51378 33.5183C8.51378 33.9488 8.65722 34.3793 8.94411 34.6664C3.63673 44.2093 0.8396 54.9721 0.8396 66.2372C0.8396 77.5022 3.70845 88.3367 9.01583 97.8797C8.80067 98.1667 8.65722 98.5972 8.65722 99.0277C8.65722 100.104 9.51788 100.965 10.5937 100.965C10.6654 100.965 10.7371 100.965 10.8806 100.965C13.4626 105.055 16.5466 108.929 19.9892 112.374C31.8949 124.284 47.6019 131.029 64.3847 131.46C64.6716 132.105 65.3171 132.536 66.106 132.536C66.8949 132.536 67.5404 132.105 67.8273 131.46C84.6101 131.029 100.317 124.284 112.223 112.374C115.809 108.786 118.893 104.911 121.475 100.678C122.479 100.606 123.268 99.7452 123.268 98.7407C123.268 98.4537 123.196 98.1667 123.124 97.9514C128.504 88.3367 131.372 77.5022 131.372 66.1654L131.229 66.2372Z" fill="#E6E6E6"/>
</svg>

<svg xmlns="http://www.w3.org/2000/svg" fill="none" viewBox="0.84 -0.06 130.53 132.6"><path d="M78.729 128.661a34.508 34.508 0 0 0 21.66-28.916h19.149c.072.144.144.287.287.431-9.108 14.422-23.811 24.969-41.096 28.485Zm-66.557-28.557c.071-.072.071-.215.143-.359h19.293c1.22 13.131 9.826 24.181 21.66 28.916-17.285-3.516-32.06-14.063-41.168-28.557h.072ZM5.717 46.362a32.475 32.475 0 0 0-.43 5.31c0 11.982 6.096 22.53 15.42 28.772l-9.683 16.933c-.143-.071-.359-.071-.502-.071-5.092-9.184-8.033-19.66-8.033-30.854 0-6.96 1.148-13.704 3.228-19.947v-.143ZM64.313 2.809c.143.215.287.43.43.574l-9.825 17.22a34.377 34.377 0 0 0-15.062-3.444c-8.463 0-16.209 3.085-22.234 8.18C28.954 11.993 45.665 3.383 64.385 2.88l-.072-.071Zm49.559 21.74c-5.952-4.807-13.483-7.749-21.731-7.749-5.451 0-10.543 1.292-15.133 3.516L67.325 3.383c.144-.144.359-.36.43-.574 18.361.502 34.785 8.825 46.117 21.74ZM98.668 85.251a34.69 34.69 0 0 0 11.116-4.233l9.754 17.077h-19.006c0-.502.072-1.005.072-1.507 0-3.946-.645-7.749-1.936-11.337ZM85.04 98.095l6.957-12.198h.072c2.008 0 4.016-.215 5.953-.502 1.22 3.516 1.936 7.247 1.936 11.193 0 .502 0 1.005-.071 1.507H85.04Zm-17.284 31.786c-.144-.215-.287-.43-.502-.646l16.854-29.49h15.707c-1.363 14.279-11.619 26.046-25.174 29.634-2.224.287-4.519.502-6.814.574l-.071-.072ZM48.032 99.745l16.855 29.49c-.215.144-.359.359-.502.646-2.295-.072-4.59-.215-6.814-.574-13.555-3.516-23.883-15.283-25.174-29.633h15.707l-.072.071Zm-15.85-3.229c0-3.802.645-7.462 1.793-10.834 1.936.359 3.873.502 5.881.502h.43L47.1 98.095H32.254c0-.502-.072-1.005-.072-1.507v-.072Zm1.147-10.978a34.53 34.53 0 0 0-1.793 10.978c0 .503 0 1.005.072 1.507H12.602l9.61-16.79a35.217 35.217 0 0 0 11.19 4.305h-.073Zm-3.514-17.722L36.27 79.08c-1.076 1.865-2.008 3.803-2.726 5.812-3.944-.718-7.674-2.225-11.045-4.234l7.388-12.915-.072.072Zm35.574-38.388c-1.004 1.22-1.937 2.583-2.797 3.947H49.538l6.599-11.48c3.514 1.937 6.67 4.52 9.323 7.534h-.071Zm17.141 3.947H69.118a39.637 39.637 0 0 0-2.869-3.947 33.558 33.558 0 0 1 9.54-7.82l6.741 11.839v-.072ZM95.8 79.08l6.455-11.265 7.172 12.556c-3.371 2.01-7.029 3.444-10.974 4.162-.717-1.937-1.578-3.731-2.582-5.525l-.071.072Zm-.359.645c.932 1.579 1.721 3.23 2.295 4.951-1.793.287-3.586.503-5.45.503l3.083-5.454h.072Zm-18.934 1.65L84.25 67.96c4.089 2.583 7.531 6.1 10.185 10.117l-4.017 7.032c-5.02-.215-9.682-1.579-13.913-3.731Zm-9.611 16.647 9.324-16.072c4.231 2.152 8.893 3.516 13.842 3.803l-7.029 12.27H66.895Zm-.574 1.65H82.1L66.32 127.37V99.673Zm-.645 0v27.697L49.897 99.673h15.779Zm-9.754-17.579 9.18 15.93H48.965L42.15 86.04c4.949-.36 9.61-1.722 13.77-3.947ZM38.637 52.246h.072l8.75 15.067c-4.089 2.584-7.531 6.028-10.185 10.046l-6.455-11.337 7.89-13.848-.072.072Zm-1.363-.933-7.459 13.059-16.496-28.916 23.955 15.857Zm.287-.574L13.678 34.953h32.848L37.49 50.74h.072Zm19.938.502v.072H39.14l9.324-16.36h13.053c-2.582 4.88-4.088 10.404-4.088 16.216l.071.072Zm35.287.072H74.282c-.072-5.884-1.578-11.48-4.231-16.36h13.412l9.323 16.36Zm1.578-.646L85.4 35.025h33.135l-24.17 15.642Zm.287.574 23.883-15.498-16.352 28.7-7.53-13.202Zm-1.363 1.005 7.961 13.848-6.454 11.336A34.844 34.844 0 0 0 84.61 67.385l8.75-15.14h-.072ZM73.924 62.864v-.144c0-.717-.43-1.363-1.005-1.65a36.87 36.87 0 0 0 1.291-8.036h16.712l-7.818 13.49a34.123 34.123 0 0 0-9.18-3.66Zm-6.599 11.552c.359-.359.502-.79.502-1.292 0-.43-.143-.789-.358-1.076 1.721-2.296 3.084-4.807 4.16-7.462h.286c.79 0 1.435-.502 1.722-1.148a35.48 35.48 0 0 1 9.037 3.587l-7.746 13.49a33.431 33.431 0 0 1-7.674-6.1h.071ZM58.001 63.51c.287.645.933 1.076 1.722 1.076.143 0 .287 0 .43-.072 1.148 2.655 2.582 5.166 4.232 7.39-.216.288-.359.718-.359 1.149 0 .574.215 1.076.646 1.435-2.224 2.44-4.806 4.52-7.675 6.242l-7.889-13.705a31.97 31.97 0 0 1 8.894-3.515Zm.933-2.512c-.646.287-1.076.933-1.076 1.722v.216a35.473 35.473 0 0 0-9.037 3.587l-7.817-13.49H57.57c.144 2.727.646 5.454 1.363 7.965Zm13.125-.215c-.86 0-1.65.574-1.865 1.435-1.363-.144-2.797-.287-4.231-.287-1.507 0-2.941.072-4.375.287a1.935 1.935 0 0 0-1.865-1.435h-.215c-.718-2.511-1.22-5.094-1.363-7.82h15.42a39.553 39.553 0 0 1-1.22 7.82h-.286ZM67.11 71.547c-.287-.215-.717-.359-1.147-.359-.43 0-.79.144-1.076.359-1.65-2.224-3.013-4.664-4.16-7.247.502-.287.86-.861.86-1.435 1.435-.215 2.87-.287 4.304-.287 1.434 0 2.797.072 4.16.287.071.646.43 1.22 1.004 1.578-1.076 2.583-2.439 4.951-4.017 7.175l.072-.071Zm-1.147 24.682-8.607-14.924a33.868 33.868 0 0 0 7.89-6.386c.215.072.501.144.788.144.287 0 .574-.072.86-.216 2.296 2.44 4.95 4.593 7.89 6.243l-8.75 15.14h-.071Zm-2.726-62.926c.79-1.22 1.578-2.368 2.51-3.444.933 1.076 1.793 2.224 2.51 3.444h-5.02Zm6.025 1.65a33.116 33.116 0 0 1 4.303 16.36H58.073v-.072a33.443 33.443 0 0 1 4.16-16.216h7.029v-.072ZM39.784 85.467h-.071c-1.937 0-3.802-.144-5.666-.503.645-1.865 1.506-3.587 2.438-5.31l3.3 5.813Zm-2.295-7.39c2.654-4.09 6.097-7.535 10.185-10.118l7.889 13.633a33.525 33.525 0 0 1-13.842 3.875l-4.16-7.32-.072-.07ZM125.85 51.24c0 11.767-6.025 22.1-15.133 28.198l-7.603-13.345 17.572-30.782c.215.144.502.215.789.215h.072a63.602 63.602 0 0 1 2.868 5.884 33.912 33.912 0 0 1 1.435 9.83Zm-9.18-23.176c1.075 1.435 2.151 2.942 3.084 4.52a1.21 1.21 0 0 0-.216.718H84.323l-7.172-12.556c4.447-2.153 9.467-3.445 14.775-3.445 9.754 0 18.504 4.162 24.744 10.763Zm-41.312-7.103c-3.658 2.009-6.957 4.735-9.682 7.893a35.875 35.875 0 0 0-9.396-7.606l9.61-16.862 9.468 16.503v.072Zm-35.645-3.3c5.307 0 10.327 1.219 14.774 3.372l-7.029 12.27H12.172c0-.216-.072-.431-.216-.647.79-1.291 1.65-2.511 2.51-3.73 6.24-6.889 15.206-11.194 25.175-11.194l.072-.072ZM7.295 41.841a65.497 65.497 0 0 1 3.084-6.386c.286 0 .573-.072.789-.216l17.571 30.854-7.817 13.704C11.813 73.7 5.86 63.368 5.86 51.6c0-3.373.502-6.673 1.435-9.758Zm114.323 55.105c-.143 0-.287-.072-.43-.072-.143 0-.287 0-.43.072l-9.683-16.934a34.447 34.447 0 0 0 15.42-28.772c0-1.865-.143-3.731-.43-5.525a62.98 62.98 0 0 1 3.443 20.593 63.476 63.476 0 0 1-7.89 30.71v-.072Zm9.611-30.71c0-11.265-2.797-22.028-8.105-31.57.216-.288.359-.718.359-1.077a1.929 1.929 0 0 0-1.936-1.937h-.216a64.358 64.358 0 0 0-9.18-11.552C100.245 8.19 84.538 1.445 67.756 1.015c-.287-.646-.933-1.077-1.722-1.077-.789 0-1.434.431-1.721 1.077-16.783.43-32.49 7.175-44.395 19.086a66.485 66.485 0 0 0-9.18 11.48h-.288a1.929 1.929 0 0 0-1.936 1.937c0 .43.143.861.43 1.148C3.637 44.21.84 54.972.84 66.237s2.868 22.1 8.176 31.643c-.215.287-.359.717-.359 1.148 0 1.076.86 1.937 1.937 1.937h.287a66.29 66.29 0 0 0 9.108 11.409c11.906 11.91 27.613 18.655 44.396 19.086.287.645.932 1.076 1.721 1.076s1.434-.431 1.721-1.076c16.783-.431 32.49-7.176 44.396-19.086 3.586-3.588 6.67-7.463 9.252-11.696a1.952 1.952 0 0 0 1.793-1.937c0-.287-.072-.574-.144-.79 5.38-9.614 8.248-20.449 8.248-31.786l-.143.072Z" fill="#E6E6E6"/></svg>
